flaticon/medical/inhalator.svg

<svg xmlns="http://www.w3.org/2000/svg" width="32" height="32" viewBox="0 0 24 24">
    <path d="M20.746094 20.726562C20.746094 20.949219 20.5625 21.132812 20.339844 21.132812 20.113281 21.132812 19.933594 20.949219 19.933594 20.726562 19.933594 20.5 20.113281 20.320312 20.339844 20.320312 20.5625 20.320312 20.746094 20.5 20.746094 20.726562zM22.371094 20.726562C22.371094 20.949219 22.191406 21.132812 21.964844 21.132812 21.742188 21.132812 21.558594 20.949219 21.558594 20.726562 21.558594 20.5 21.742188 20.320312 21.964844 20.320312 22.191406 20.320312 22.371094 20.5 22.371094 20.726562zM24 20.726562C24 20.949219 23.816406 21.132812 23.59375 21.132812 23.367188 21.132812 23.1875 20.949219 23.1875 20.726562 23.1875 20.5 23.367188 20.320312 23.59375 20.320312 23.816406 20.320312 24 20.5 24 20.726562zM20.746094 19.097656C20.746094 19.324219 20.5625 19.507812 20.339844 19.507812 20.113281 19.507812 19.933594 19.324219 19.933594 19.097656 19.933594 18.875 20.113281 18.691406 20.339844 18.691406 20.5625 18.691406 20.746094 18.875 20.746094 19.097656zM22.371094 19.097656C22.371094 19.324219 22.191406 19.507812 21.964844 19.507812 21.742188 19.507812 21.558594 19.324219 21.558594 19.097656 21.558594 18.875 21.742188 18.691406 21.964844 18.691406 22.191406 18.691406 22.371094 18.875 22.371094 19.097656zM24 19.097656C24 19.324219 23.816406 19.507812 23.59375 19.507812 23.367188 19.507812 23.1875 19.324219 23.1875 19.097656 23.1875 18.875 23.367188 18.691406 23.59375 18.691406 23.816406 18.691406 24 18.875 24 19.097656zM20.746094 22.351562C20.746094 22.578125 20.5625 22.761719 20.339844 22.761719 20.113281 22.761719 19.933594 22.578125 19.933594 22.351562 19.933594 22.128906 20.113281 21.945312 20.339844 21.945312 20.5625 21.945312 20.746094 22.128906 20.746094 22.351562zM22.371094 22.351562C22.371094 22.578125 22.191406 22.761719 21.964844 22.761719 21.742188 22.761719 21.558594 22.578125 21.558594 22.351562 21.558594 22.128906 21.742188 21.945312 21.964844 21.945312 22.191406 21.945312 22.371094 22.128906 22.371094 22.351562zM24 22.351562C24 22.578125 23.816406 22.761719 23.59375 22.761719 23.367188 22.761719 23.1875 22.578125 23.1875 22.351562 23.1875 22.128906 23.367188 21.945312 23.59375 21.945312 23.816406 21.945312 24 22.128906 24 22.351562zM4.042969 2.085938L1.671875 2.675781C1.457031 2.730469 1.324219 2.953125 1.375 3.171875 1.421875 3.355469 1.589844 3.476562 1.769531 3.476562 1.804688 3.476562 1.835938 3.476562 1.871094 3.464844L4.238281 2.875C4.457031 2.820312 4.589844 2.601562 4.535156 2.382812 4.480469 2.164062 4.257812 2.03125 4.042969 2.085938zM5.621094 1.691406L5.226562 1.792969C5.007812 1.84375 4.875 2.066406 4.929688 2.285156 4.976562 2.46875 5.140625 2.59375 5.324219 2.59375 5.355469 2.59375 5.390625 2.589844 5.421875 2.582031L5.816406 2.480469C6.035156 2.429688 6.167969 2.207031 6.113281 1.988281 6.058594 1.773438 5.839844 1.636719 5.621094 1.691406zM5.621094 1.691406"/>
    <path d="M 12.027344 16.644531 L 8.644531 3.757812 L 7.910156 4.148438 L 7.148438 1.089844 C 7.054688 0.726562 6.828125 0.417969 6.503906 0.222656 C 6.179688 0.0273438 5.800781 -0.0273438 5.433594 0.0625 L 1.070312 1.148438 C 0.707031 1.242188 0.398438 1.46875 0.203125 1.792969 C 0.0078125 2.117188 -0.046875 2.496094 0.0429688 2.863281 L 1.246094 7.695312 L 0.503906 8.09375 L 4.5625 23.363281 C 4.660156 23.726562 4.988281 23.980469 5.367188 23.980469 L 19.117188 23.980469 L 19.117188 16.660156 L 12.042969 16.660156 C 12.035156 16.660156 12.027344 16.652344 12.027344 16.644531 Z M 1.988281 7.300781 L 0.832031 2.664062 C 0.792969 2.511719 0.816406 2.347656 0.898438 2.210938 C 0.980469 2.074219 1.113281 1.976562 1.269531 1.941406 L 5.632812 0.851562 C 5.679688 0.839844 5.730469 0.832031 5.777344 0.832031 C 5.886719 0.832031 5.992188 0.863281 6.085938 0.917969 C 6.222656 1 6.320312 1.132812 6.355469 1.289062 L 7.167969 4.542969 L 5.238281 5.570312 Z M 18.304688 23.167969 L 5.347656 23.152344 L 1.453125 8.507812 L 8.113281 4.960938 L 8.117188 4.960938 L 11.238281 16.851562 C 11.335938 17.21875 11.667969 17.472656 12.042969 17.472656 L 18.304688 17.472656 Z M 18.304688 23.167969"/>
    <path d="M10.167969 16.660156L8.542969 16.660156C8.316406 16.660156 8.136719 16.839844 8.136719 17.066406 8.136719 17.289062 8.316406 17.472656 8.542969 17.472656L10.167969 17.472656C10.394531 17.472656 10.578125 17.289062 10.578125 17.066406 10.578125 16.839844 10.394531 16.660156 10.167969 16.660156zM7.035156 16.777344C6.960938 16.855469 6.914062 16.960938 6.914062 17.066406 6.914062 17.171875 6.960938 17.277344 7.035156 17.355469 7.109375 17.425781 7.214844 17.472656 7.324219 17.472656 7.429688 17.472656 7.535156 17.425781 7.609375 17.355469 7.683594 17.277344 7.730469 17.171875 7.730469 17.066406 7.730469 16.960938 7.683594 16.855469 7.609375 16.777344 7.457031 16.625 7.183594 16.625 7.035156 16.777344zM7.035156 16.777344"/>
</svg>

<svg xmlns="http://www.w3.org/2000/svg" width="32" height="32" viewBox="0 0 24 24">
    <path d="M20.746 20.727a.406.406 0 1 1-.813 0 .406.406 0 0 1 .813 0zm0 0M22.371 20.727a.406.406 0 1 1-.812 0 .406.406 0 0 1 .812 0zm0 0M24 20.727a.406.406 0 1 1-.813 0 .406.406 0 0 1 .813 0zm0 0M20.746 19.098a.407.407 0 0 1-.813 0 .406.406 0 1 1 .813 0zm0 0M22.371 19.098a.407.407 0 1 1-.812 0 .406.406 0 1 1 .813 0zm0 0M24 19.098a.407.407 0 0 1-.813 0 .406.406 0 1 1 .813 0zm0 0M20.746 22.352a.407.407 0 0 1-.813 0 .406.406 0 1 1 .813 0zm0 0M22.371 22.352a.407.407 0 1 1-.812 0 .406.406 0 1 1 .813 0zm0 0M24 22.352a.407.407 0 0 1-.813 0 .406.406 0 1 1 .813 0zm0 0M4.043 2.086l-2.371.59a.415.415 0 0 0-.297.496.408.408 0 0 0 .395.305c.035 0 .066 0 .101-.012l2.367-.59a.407.407 0 0 0-.195-.79zm0 0M5.621 1.691l-.394.102a.403.403 0 0 0-.297.492.408.408 0 0 0 .492.297l.394-.102a.403.403 0 0 0 .297-.492.408.408 0 0 0-.492-.297zm0 0"/>
    <path d="M12.027 16.645L8.645 3.758l-.735.39-.762-3.058A1.418 1.418 0 0 0 5.434.062L1.07 1.149A1.418 1.418 0 0 0 .043 2.863l1.203 4.832-.742.399 4.059 15.27a.832.832 0 0 0 .804.616h13.75v-7.32h-7.074a.017.017 0 0 1-.016-.015zM1.988 7.3L.832 2.664a.596.596 0 0 1 .066-.453.581.581 0 0 1 .372-.27L5.633.851a.613.613 0 0 1 .144-.019c.11 0 .215.031.309.086a.581.581 0 0 1 .27.371l.812 3.254-1.93 1.027zm16.317 15.867l-12.957-.016L1.453 8.508l6.66-3.547h.004l3.121 11.89c.098.368.43.622.805.622h6.262zm0 0"/>
    <path d="M10.168 16.66H8.543a.406.406 0 1 0 0 .813h1.625a.407.407 0 0 0 0-.813zm0 0M7.035 16.777a.43.43 0 0 0-.12.29c0 .105.046.21.12.288.074.07.18.118.29.118.105 0 .21-.047.284-.118a.43.43 0 0 0 .121-.289.43.43 0 0 0-.12-.289.418.418 0 0 0-.575 0zm0 0"/>
</svg>
